X: 4539
T: Borthwick, The
R: reel
M: 4/4
K: Adorian
EAAG ABcd|efga gedB|A2B/A/G dGBG|ABcd cBAG|
E2AG ABcd|efga gedB|A2af gede|c2A2 A2:|
fg|afge afge|afgf edBc|dBcA dBcB|ABcd cBAG|
E2AG ABcd|efga gedB|A2af gede|c2A2 A2:|

